!!!!SEGMENT: T705_Cop-w7p57h45m1-h46m2.krn
!!!COM: Copland, Aaron
!!!OTL: single movement work
!!!AGN: Orchestral
!!!AGN-sub: Symphonic
!!!CNT: American
!!!ODT: 1929 (rev. 1955)
!!!OPR: Symphonic Ode
!!!filename: T705_Cop-w7p57h45m1-h46m2.krn
**kern	**dynam	**kern	**dynam	**kern	**dynam	**kern	**dynam	**kern	**kern	**dynam	**kern	**dynam	**kern	**dynam	**kern	**dynam	**kern	**dynam	**kern	**dynam	**kern	**dynam	**kern	**dynam	**kern	**dynam	**kern	**dynam	**kern	**dynam	**kern	**dynam
*grp:A	*	*grp:A	*	*grp:B	*	*grp:B	*	*grp:A	*grp:A	*	*grp:A	*	*grp:A	*	*grp:A	*	*grp:B	*	*grp:B	*	*grp:A	*	*grp:A	*	*grp:B	*	*grp:A	*	*grp:A	*	*grp:A	*
*part16	*	*part15	*	*part14	*	*part13	*	*part12	*part12	*	*part11	*	*part10	*	*part9	*	*part8	*	*part7	*	*part6	*	*part5	*	*part4	*	*part3	*	*part2	*	*part1	*
*staff17	*	*staff16	*	*staff15	*	*staff14	*	*staff13	*staff12	*	*staff11	*	*staff10	*	*staff9	*	*staff8	*	*staff7	*	*staff6	*	*staff5	*	*staff4	*	*staff3	*	*staff2	*	*staff1	*
*ICstr	*	*ICstr	*	*ICstr	*	*ICstr	*	*ICklav	*ICklav	*	*ICidio	*	*ICidio	*	*ICidio	*	*ICbras	*	*ICbras	*	*ICww	*	*ICww	*	*ICww	*	*ICww	*	*ICww	*	*ICww	*
*Icbass	*	*Iviola	*	*Ivioln	*	*Ivioln	*	*Ipiano	*Ipiano	*	*Iwblok	*	*Itblok	*	*Itimpa	*	*Itromp	*	*Itromp	*	*Iclars	*	*Iclars	*	*Icangl	*	*Ioboe	*	*Ioboe	*	*Iflt	*
*I"Contrabass	*	*I"Viola	*	*I"Violin II	*	*I"Violin I	*	*I"Piano	*I"Piano	*	*I"Wood Block	*	*I"Temple Blocks	*	*I"Timpani	*	*I"Trumpet in C 2	*	*I"Trumpet in C 1	*	*I"Clarinet in Bb 1, 2	*	*I"Clarinet in Eb	*	*I"English Horn	*	*I"Oboe 3	*	*I"Oboe 1, 2	*	*I"Flute 1, 2, 3	*
*I'cb	*	*I'vla	*	*I'vn	*	*I'vn	*	*I'pf	*I'pf	*	*I'block	*	*I'block	*	*I'timp	*	*I'tp	*	*I'tp	*	*I'cl	*	*I'cl	*	*I'cor-en	*	*I'ob	*	*I'ob	*	*I'fl	*
*	*	*	*	*	*	*	*	*	*	*	*stria1	*	*stria5	*	*	*	*	*	*	*	*	*	*	*	*	*	*	*	*	*	*	*
*clefF4	*	*clefC3	*	*clefG2	*	*clefG2	*	*clefF4	*clefG2	*	*clefX	*	*clefX	*	*clefF4	*	*clefG2	*	*clefG2	*	*clefG2	*	*clefG2	*	*clefG2	*	*clefG2	*	*clefG2	*	*clefG2	*
*ITrd7c12	*	*	*	*	*	*	*	*	*	*	*	*	*	*	*	*	*	*	*	*	*ITrd1c2	*	*ITrd-2c-3	*	*ITrd4c7	*	*	*	*	*	*	*
*k[]	*	*k[]	*	*k[]	*	*k[]	*	*k[]	*k[]	*	*k[]	*	*k[]	*	*k[]	*	*k[]	*	*k[]	*	*k[b-e-]	*	*k[b-e-a-]	*	*k[b-]	*	*k[]	*	*k[]	*	*k[]	*
*	*	*	*	*	*	*	*	*	*	*	*C:	*	*C:	*	*	*	*	*	*	*	*	*	*	*	*	*	*	*	*	*	*	*
!!LO:TX:tempo:a:t=Più mosso (molto ritmico)\n[quarter]=208
*M2/2	*	*M2/2	*	*M2/2	*	*M2/2	*	*M2/2	*M2/2	*	*M2/2	*	*M2/2	*	*M2/2	*	*M2/2	*	*M2/2	*	*M2/2	*	*M2/2	*	*M2/2	*	*M2/2	*	*M2/2	*	*M2/2	*
!!LO:REH:t=45
=1	=1	=1	=1	=1	=1	=1	=1	=1	=1	=1	=1	=1	=1	=1	=1	=1	=1	=1	=1	=1	=1	=1	=1	=1	=1	=1	=1	=1	=1	=1	=1	=1
*	*	*	*	*	*	*	*	*	*	*	*	*	*	*	*	*	*	*	*	*	*	*	*	*	*	*	*	*	*	*	*	*
!	!	!	!LO:DY:t=sub. %s au talon	!	!	!	!	!	!	!	!	!	!	!	!LO:TX:a:i:t=molto ritmico	!LO:DY:t=sub. %s	!	!	!	!	!	!	!	!	!	!	!	!	!	!	!	!
1r	.	4F`u 4A 4c	mp	1r	.	1r	.	1r	1r	.	1r	.	1r	.	4BB	mp	1r	.	1r	.	1r	.	1r	.	1r	.	1r	.	1r	.	1r	.
.	.	4F`u 4A 4c	.	.	.	.	.	.	.	.	.	.	.	.	4F#X	.	.	.	.	.	.	.	.	.	.	.	.	.	.	.	.	.
.	.	4..F`u 4..A 4..c	.	.	.	.	.	.	.	.	.	.	.	.	4..FFn	.	.	.	.	.	.	.	.	.	.	.	.	.	.	.	.	.
.	.	16F`v 16A 16c	.	.	.	.	.	.	.	.	.	.	.	.	16AA	.	.	.	.	.	.	.	.	.	.	.	.	.	.	.	.	.
=:	=:	=:	=:	=:	=:	=:	=:	=:	=:	=:	=:	=:	=:	=:	=:	=:	=:	=:	=:	=:	=:	=:	=:	=:	=:	=:	=:	=:	=:	=:	=:	=:
*M3/4	*	*M3/4	*	*M3/4	*	*M3/4	*	*M3/4	*M3/4	*	*M3/4	*	*M3/4	*	*M3/4	*	*M3/4	*	*M3/4	*	*M3/4	*	*M3/4	*	*M3/4	*	*M3/4	*	*M3/4	*	*M3/4	*
2.r	.	4F`u 4A 4c	.	2.r	.	2.r	.	2.r	2.r	.	2.r	.	2.r	.	4F#N	.	2.r	.	2.r	.	2.r	.	2.r	.	2.r	.	2.r	.	2.r	.	2.r	.
.	.	4F`u 4A 4c	.	.	.	.	.	.	.	.	.	.	.	.	4FF	.	.	.	.	.	.	.	.	.	.	.	.	.	.	.	.	.
.	.	4F`u 4A 4c	.	.	.	.	.	.	.	.	.	.	.	.	4BB	.	.	.	.	.	.	.	.	.	.	.	.	.	.	.	.	.
=2	=2	=2	=2	=2	=2	=2	=2	=2	=2	=2	=2	=2	=2	=2	=2	=2	=2	=2	=2	=2	=2	=2	=2	=2	=2	=2	=2	=2	=2	=2	=2	=2
*M2/2	*	*M2/2	*	*M2/2	*	*M2/2	*	*M2/2	*M2/2	*	*M2/2	*	*M2/2	*	*M2/2	*	*M2/2	*	*M2/2	*	*M2/2	*	*M2/2	*	*M2/2	*	*M2/2	*	*M2/2	*	*M2/2	*
1r	.	1r	.	1r	.	1r	.	4r	4r	.	1r	.	1r	.	4F#X	.	1r	.	1r	.	1r	.	1r	.	1r	.	1r	.	1r	.	1r	.
*	*	*	*	*	*	*	*	*8ba	*clefF4	*	*	*	*	*	*	*	*	*	*	*	*	*	*	*	*	*	*	*	*	*	*	*
!	!	!	!	!	!	!	!	!LO:TX:b:i:t=senza ped.	!LO:TX:a:t=(molto ritmico)	!LO:DY:t=%s secco	!	!	!	!	!	!	!	!	!	!	!	!	!	!	!	!	!	!	!	!	!	!
.	.	.	.	.	.	.	.	4FFF	4F 4A 4c	mp	.	.	.	.	4FFnZ	.	.	.	.	.	.	.	.	.	.	.	.	.	.	.	.	.
.	.	.	.	.	.	.	.	4..BBB	4..F 4..A 4..c	.	.	.	.	.	4..BB	.	.	.	.	.	.	.	.	.	.	.	.	.	.	.	.	.
.	.	.	.	.	.	.	.	16FF#X	16F 16A 16c	.	.	.	.	.	16F#	.	.	.	.	.	.	.	.	.	.	.	.	.	.	.	.	.
=:	=:	=:	=:	=:	=:	=:	=:	=:	=:	=:	=:	=:	=:	=:	=:	=:	=:	=:	=:	=:	=:	=:	=:	=:	=:	=:	=:	=:	=:	=:	=:	=:
*M3/4	*	*M3/4	*	*M3/4	*	*M3/4	*	*M3/4	*M3/4	*	*M3/4	*	*M3/4	*	*M3/4	*	*M3/4	*	*M3/4	*	*M3/4	*	*M3/4	*	*M3/4	*	*M3/4	*	*M3/4	*	*M3/4	*
2.r	.	2.r	.	2.r	.	2.r	.	4FFFnZ	4F 4A 4c	.	2.r	.	2.r	.	4FF	.	2.r	.	2.r	.	2.r	.	2.r	.	2.r	.	2.r	.	2.r	.	2.r	.
.	.	.	.	.	.	.	.	4BBB	4F 4A 4c	.	.	.	.	.	4BB	.	.	.	.	.	.	.	.	.	.	.	.	.	.	.	.	.
.	.	.	.	.	.	.	.	4FF#N	4F 4A 4c	.	.	.	.	.	4F#N	.	.	.	.	.	.	.	.	.	.	.	.	.	.	.	.	.
=3	=3	=3	=3	=3	=3	=3	=3	=3	=3	=3	=3	=3	=3	=3	=3	=3	=3	=3	=3	=3	=3	=3	=3	=3	=3	=3	=3	=3	=3	=3	=3	=3
*grp:A	*	*grp:B	*	*grp:B	*	*grp:B	*	*grp:A	*grp:B	*	*grp:A	*	*grp:A	*	*grp:A	*	*grp:B	*	*grp:B	*	*grp:A	*	*grp:A	*	*grp:B	*	*grp:A	*	*grp:A	*	*grp:A	*
*M2/2	*	*M2/2	*	*M2/2	*	*M2/2	*	*M2/2	*M2/2	*	*M2/2	*	*M2/2	*	*M2/2	*	*M2/2	*	*M2/2	*	*M2/2	*	*M2/2	*	*M2/2	*	*M2/2	*	*M2/2	*	*M2/2	*
1r	.	4r	.	1r	.	1r	.	4FFFnZ	4r	.	1r	.	1r	.	4FFnZ	.	1r	.	1r	.	1r	.	1r	.	1r	.	1r	.	1r	.	1r	.
.	.	8F^L 8A 8c	.	.	.	.	.	4BBB	8F^L 8A 8c	.	.	.	.	.	4BB	.	.	.	.	.	.	.	.	.	.	.	.	.	.	.	.	.
.	.	8FJ 8A 8c	.	.	.	.	.	.	8FJ 8A 8c	.	.	.	.	.	.	.	.	.	.	.	.	.	.	.	.	.	.	.	.	.	.	.
.	.	8FL 8A 8c	.	.	.	.	.	4..FF#X	8FL 8A 8c	.	.	.	.	.	4..F#X	.	.	.	.	.	.	.	.	.	.	.	.	.	.	.	.	.
.	.	8FJ 8A 8c	.	.	.	.	.	.	8FJ 8A 8c	.	.	.	.	.	.	.	.	.	.	.	.	.	.	.	.	.	.	.	.	.	.	.
.	.	8FL 8A 8c	.	.	.	.	.	.	8FL 8A 8c	.	.	.	.	.	.	.	.	.	.	.	.	.	.	.	.	.	.	.	.	.	.	.
.	.	8FJ 8A 8c	.	.	.	.	.	.	8FJ 8A 8c	.	.	.	.	.	.	.	.	.	.	.	.	.	.	.	.	.	.	.	.	.	.	.
.	.	.	.	.	.	.	.	16BBB	.	.	.	.	.	.	16BB	.	.	.	.	.	.	.	.	.	.	.	.	.	.	.	.	.
=:	=:	=:	=:	=:	=:	=:	=:	=:	=:	=:	=:	=:	=:	=:	=:	=:	=:	=:	=:	=:	=:	=:	=:	=:	=:	=:	=:	=:	=:	=:	=:	=:
*M3/4	*	*M3/4	*	*M3/4	*	*M3/4	*	*M3/4	*M3/4	*	*M3/4	*	*M3/4	*	*M3/4	*	*M3/4	*	*M3/4	*	*M3/4	*	*M3/4	*	*M3/4	*	*M3/4	*	*M3/4	*	*M3/4	*
!	!	!	!	!	!	!	!	!	!	!	!	!	!	!	!	!	!LO:TX:a:t=2. con sord.	!	!LO:TX:a:t=1. con sord.	!	!	!	!	!	!	!	!	!	!	!	!	!
2.r	.	2.r	.	2.r	.	2.r	.	4FF#N	2.r	.	2.r	.	2.r	.	4F#N	.	4r	.	4r	.	2.r	.	2.r	.	4r	.	2.r	.	2.r	.	2.r	.
!	!	!	!	!	!	!	!	!	!	!	!	!	!	!	!	!	!	!LO:DY:t=%s secco a marc.	!	!LO:DY:t=%s secco a marc.	!	!	!	!	!LO:TX:a:t=Solo	!LO:DY:t=%s secco, non legato a marc.	!	!	!	!	!	!
.	.	.	.	.	.	.	.	4FFF	.	.	.	.	.	.	4FF	.	4g	mf	4b	mf	.	.	.	.	4dd	mf	.	.	.	.	.	.
.	.	.	.	.	.	.	.	4BBB	.	.	.	.	.	.	4BB	.	4a	.	4cc	.	.	.	.	.	4dd	.	.	.	.	.	.	.
=4	=4	=4	=4	=4	=4	=4	=4	=4	=4	=4	=4	=4	=4	=4	=4	=4	=4	=4	=4	=4	=4	=4	=4	=4	=4	=4	=4	=4	=4	=4	=4	=4
*M2/2	*	*M2/2	*	*M2/2	*	*M2/2	*	*M2/2	*M2/2	*	*M2/2	*	*M2/2	*	*M2/2	*	*M2/2	*	*M2/2	*	*M2/2	*	*M2/2	*	*M2/2	*	*M2/2	*	*M2/2	*	*M2/2	*
1r	.	1r	.	1r	.	1r	.	4FF#X	1r	.	1r	.	1r	.	4F#X	.	4..a	.	4..b	.	1r	.	1r	.	4..dd	.	1r	.	1r	.	1r	.
.	.	.	.	.	.	.	.	4FFFnZ	.	.	.	.	.	.	4FFnZ	.	.	.	.	.	.	.	.	.	.	.	.	.	.	.	.	.
.	.	.	.	.	.	.	.	.	.	.	.	.	.	.	.	.	16a	.	16cc	.	.	.	.	.	16dd	.	.	.	.	.	.	.
.	.	.	.	.	.	.	.	4..BBB	.	.	.	.	.	.	4..BB	.	4a	.	4dd	.	.	.	.	.	4bX	.	.	.	.	.	.	.
.	.	.	.	.	.	.	.	.	.	.	.	.	.	.	.	.	4g	.	4a	.	.	.	.	.	4dd	.	.	.	.	.	.	.
.	.	.	.	.	.	.	.	16FF#	.	.	.	.	.	.	16F#	.	.	.	.	.	.	.	.	.	.	.	.	.	.	.	.	.
=:	=:	=:	=:	=:	=:	=:	=:	=:	=:	=:	=:	=:	=:	=:	=:	=:	=:	=:	=:	=:	=:	=:	=:	=:	=:	=:	=:	=:	=:	=:	=:	=:
*M3/4	*	*M3/4	*	*M3/4	*	*M3/4	*	*M3/4	*M3/4	*	*M3/4	*	*M3/4	*	*M3/4	*	*M3/4	*	*M3/4	*	*M3/4	*	*M3/4	*	*M3/4	*	*M3/4	*	*M3/4	*	*M3/4	*
*	*	*	*	*	*	*	*	*	*	*	*	*	*head:x	*	*	*	*	*	*	*	*	*	*	*	*	*	*	*	*	*	*	*
2.r	.	4r	.	2.r	.	2.r	.	4FFF	4r	.	2.r	.	4r	.	4FF	.	4B	.	4g	.	2.r	.	2.r	.	4a	.	2.r	.	2.r	.	2.r	.
.	.	4r	.	.	.	.	.	4BBB	4r	.	.	.	4bRR\	mp	4BB	.	4r	.	4r	.	.	.	.	.	4r	.	.	.	.	.	.	.
.	.	8FL 8A 8c	.	.	.	.	.	4FF#XZ	8FL 8A 8c	.	.	.	4RRff\	.	4F#XZ	.	4r	.	4r	.	.	.	.	.	4r	.	.	.	.	.	.	.
.	.	8FJ 8A 8c	.	.	.	.	.	.	8FJ 8A 8c	.	.	.	.	.	.	.	.	.	.	.	.	.	.	.	.	.	.	.	.	.	.	.
=5	=5	=5	=5	=5	=5	=5	=5	=5	=5	=5	=5	=5	=5	=5	=5	=5	=5	=5	=5	=5	=5	=5	=5	=5	=5	=5	=5	=5	=5	=5	=5	=5
*M2/2	*	*M2/2	*	*M2/2	*	*M2/2	*	*M2/2	*M2/2	*	*M2/2	*	*M2/2	*	*M2/2	*	*M2/2	*	*M2/2	*	*M2/2	*	*M2/2	*	*M2/2	*	*M2/2	*	*M2/2	*	*M2/2	*
*^	*	*	*	*	*	*	*	*	*	*	*	*	*	*	*	*	*	*	*	*	*	*	*	*	*	*	*	*	*	*	*	*
!LO:TX:a:t=div. ritmico	!	!LO:DY:t=%s secco, non legato	!	!	!	!	!	!	!	!	!	!	!	!	!	!	!	!	!	!	!	!	!	!	!	!	!	!	!	!	!	!	!
4BBB	1rAAA	mp	8FL 8A 8c	.	1r	.	1r	.	4BBB	8FL 8A 8c	.	1r	.	4RRb\	.	4BB	.	2r	.	2r	.	1r	.	1r	.	2r	.	1r	.	1r	.	1r	.
.	.	.	8FJ 8A 8c	.	.	.	.	.	.	8FJ 8A 8c	.	.	.	.	.	.	.	.	.	.	.	.	.	.	.	.	.	.	.	.	.	.	.
4FF#X	.	.	8FL 8A 8c	.	.	.	.	.	4FF#X	8FL 8A 8c	.	.	.	4r	.	4F#X	.	.	.	.	.	.	.	.	.	.	.	.	.	.	.	.	.
.	.	.	8FJ 8A 8c	.	.	.	.	.	.	8FJ 8A 8c	.	.	.	.	.	.	.	.	.	.	.	.	.	.	.	.	.	.	.	.	.	.	.
!	!	!	!	!	!	!	!	!	!	!	!	!	!	!	!	!	!	!LO:TX:a:i:t=sim.	!	!LO:TX:a:i:t=sim.	!	!	!	!	!	!LO:TX:a:i:t=sim.	!	!	!	!	!	!	!
.	.	.	.	.	.	.	.	.	.	.	.	.	.	8qRRb/	.	.	.	.	.	.	.	.	.	.	.	.	.	.	.	.	.	.	.
4..FFFnZ	.	.	8FL 8A 8c	.	.	.	.	.	4..FFFnZ	8FL 8A 8c	.	.	.	4RRff\	.	4..FFnZ	.	4g	.	4b	.	.	.	.	.	4dd	.	.	.	.	.	.	.
.	.	.	8FJ 8A 8c	.	.	.	.	.	.	8FJ 8A 8c	.	.	.	.	.	.	.	.	.	.	.	.	.	.	.	.	.	.	.	.	.	.	.
.	.	.	4r	.	.	.	.	.	.	4r	.	.	.	4RRb\	.	.	.	4a	.	4b	.	.	.	.	.	4dd	.	.	.	.	.	.	.
16BBB	.	.	.	.	.	.	.	.	16BBB	.	.	.	.	.	.	16BB	.	.	.	.	.	.	.	.	.	.	.	.	.	.	.	.	.
=:	=:	=:	=:	=:	=:	=:	=:	=:	=:	=:	=:	=:	=:	=:	=:	=:	=:	=:	=:	=:	=:	=:	=:	=:	=:	=:	=:	=:	=:	=:	=:	=:	=:
*M3/4	*	*	*M3/4	*	*M3/4	*	*M3/4	*	*M3/4	*M3/4	*	*M3/4	*	*M3/4	*	*M3/4	*	*M3/4	*	*M3/4	*	*M3/4	*	*M3/4	*	*M3/4	*	*M3/4	*	*M3/4	*	*M3/4	*
4FF#N	2.r	.	2.r	.	2.r	.	2.r	.	4FF#N	2.r	.	2.r	.	4RRe/	.	4F#N	.	2.r	.	2.r	.	4r	.	4r	.	2.r	.	4r	.	4r	.	2.r	.
!	!	!	!	!	!	!	!	!	!	!	!	!	!	!	!	!	!	!	!	!	!	!	!LO:DY:t=%s non legato, secco	!	!LO:DY:t=%s non legato, secco	!	!	!	!LO:DY:t=%s non legato, secco	!	!LO:DY:t=%s non legato, secco	!	!
4FFF	.	.	.	.	.	.	.	.	4FFF	.	.	.	.	4r	.	4FF	.	.	.	.	.	4e--X 4g-X	mf	4b--X	mf	.	.	4d	mf	4f#X 4a	mf	.	.
4BBB	.	.	.	.	.	.	.	.	4BBB	.	.	.	.	4r	.	4BB	.	.	.	.	.	4f-X 4a-X	.	4cc-X	.	.	.	4e	.	4g#X 4b	.	.	.
=6	=6	=6	=6	=6	=6	=6	=6	=6	=6	=6	=6	=6	=6	=6	=6	=6	=6	=6	=6	=6	=6	=6	=6	=6	=6	=6	=6	=6	=6	=6	=6	=6	=6
*M2/2	*	*	*M2/2	*	*M2/2	*	*M2/2	*	*M2/2	*M2/2	*	*M2/2	*	*M2/2	*	*M2/2	*	*M2/2	*	*M2/2	*	*M2/2	*	*M2/2	*	*M2/2	*	*M2/2	*	*M2/2	*	*M2/2	*
4FF#X	1r	.	1r	.	1r	.	1r	.	4FF#X	1r	.	1r	.	1r	.	4F#X	.	4r	.	4r	.	4ff-X 4aa-X	.	4ccc-X	.	4r	.	4ee	.	4gg#X 4bb	.	1r	.
4FFFnZ	.	.	.	.	.	.	.	.	4FFFnZ	.	.	.	.	.	.	4FFnZ	.	8.r	.	8r.	.	4r	.	4r	.	8.r	.	4r	.	4r	.	.	.
.	.	.	.	.	.	.	.	.	.	.	.	.	.	.	.	.	.	16a	.	16cc	.	.	.	.	.	16dd	.	.	.	.	.	.	.
4..BBB	.	.	.	.	.	.	.	.	4..BBB	.	.	.	.	.	.	4..BB	.	4a	.	4dd	.	2r	.	2r	.	4bX	.	2r	.	2r	.	.	.
.	.	.	.	.	.	.	.	.	.	.	.	.	.	.	.	.	.	4g	.	4a	.	.	.	.	.	4dd	.	.	.	.	.	.	.
16FF#	.	.	.	.	.	.	.	.	16FF#	.	.	.	.	.	.	16F#	.	.	.	.	.	.	.	.	.	.	.	.	.	.	.	.	.
=:	=:	=:	=:	=:	=:	=:	=:	=:	=:	=:	=:	=:	=:	=:	=:	=:	=:	=:	=:	=:	=:	=:	=:	=:	=:	=:	=:	=:	=:	=:	=:	=:	=:
*M3/4	*	*	*M3/4	*	*M3/4	*	*M3/4	*	*M3/4	*M3/4	*	*M3/4	*	*M3/4	*	*M3/4	*	*M3/4	*	*M3/4	*	*M3/4	*	*M3/4	*	*M3/4	*	*M3/4	*	*M3/4	*	*M3/4	*
!	!	!	!	!	!	!	!LO:TX:a:rj:t=div. in 3	!	!	!	!	!	!	!	!	!	!	!	!	!	!	!	!	!	!	!	!	!	!	!	!	!	!
4FFF	2.rAAA	.	2.r	.	4r	.	4r	.	4FFF	4r	.	2.r	.	4r	.	4FF	.	4B	.	4g	.	2.r	.	2.r	.	4a	.	2.r	.	2.r	.	2.r	.
!	!	!	!	!	!LO:TX:a:t=div. in 3	!	!LO:TX:a:t=pizz.	!	!	!	!	!	!	!	!	!	!	!	!	!	!	!	!	!	!	!	!	!	!	!	!	!	!
4BBB	.	.	.	.	4r	.	4b 4dd 4ff#X	f	4BBB	4r	.	.	.	4RRff\	mf	4BB	.	4r	.	4r	.	.	.	.	.	4r	.	.	.	.	.	.	.
4FF	.	.	.	.	8GL 8B 8d	mf	4aa 4ccc#X 4eee	.	4FF#N	8GL 8B 8d	.	.	.	4RRb\	.	4F#N	.	4r	.	4r	.	.	.	.	.	4r	.	.	.	.	.	.	.
.	.	.	.	.	8GJ 8B 8d	.	.	.	.	8GJ 8B 8d	.	.	.	.	.	.	.	.	.	.	.	.	.	.	.	.	.	.	.	.	.	.	.
!!LO:REH:t=46
=7	=7	=7	=7	=7	=7	=7	=7	=7	=7	=7	=7	=7	=7	=7	=7	=7	=7	=7	=7	=7	=7	=7	=7	=7	=7	=7	=7	=7	=7	=7	=7	=7	=7
*M2/2	*	*	*M2/2	*	*M2/2	*	*M2/2	*	*M2/2	*M2/2	*	*M2/2	*	*M2/2	*	*M2/2	*	*M2/2	*	*M2/2	*	*M2/2	*	*M2/2	*	*M2/2	*	*M2/2	*	*M2/2	*	*M2/2	*
4FFF	1rAAA	.	1r	.	8GL 8B 8d	.	4r	.	4FFF	8GL 8B 8d	.	1r	.	4RRff\	.	4FF	.	1r	.	1r	.	4r	.	4r	.	1r	.	4r	.	4r	.	1r	.
.	.	.	.	.	8GJ 8B 8d	.	.	.	.	8GJ 8B 8d	.	.	.	.	.	.	.	.	.	.	.	.	.	.	.	.	.	.	.	.	.	.	.
4BBB	.	.	.	.	4r	.	4aa 4ccc#X 4eee	.	4BBB	4r	.	.	.	4r	.	4BB	.	.	.	.	.	4bb--X 4ddd-X	.	4fff-X	.	.	.	4aa	.	4ccc#X 4eee	.	.	.
.	.	.	.	.	.	.	.	.	.	.	.	.	.	8qRRb/	.	.	.	.	.	.	.	.	.	.	.	.	.	.	.	.	.	.	.
4..FF#X	.	.	.	.	4r	.	4e 4g#X 4b	.	4..FF#X	4r	.	.	.	4RRff\	.	4..F#X	.	.	.	.	.	4..f-X 4..a-X	.	4..cc-X	.	.	.	4..e	.	4..g#X 4..b	.	.	.
.	.	.	.	.	8G 8B 8d	.	4r	.	.	8G 8B 8d	.	.	.	4RRb\	.	.	.	.	.	.	.	.	.	.	.	.	.	.	.	.	.	.	.
.	.	.	.	.	8r	.	.	.	.	8r	.	.	.	.	.	.	.	.	.	.	.	.	.	.	.	.	.	.	.	.	.	.	.
16BBB	.	.	.	.	.	.	.	.	16BBB	.	.	.	.	.	.	16BB	.	.	.	.	.	16dd-X' 16ff-X	.	16aa-'	.	.	.	16cc#X'	.	16ee' 16gg#X	.	.	.
=:	=:	=:	=:	=:	=:	=:	=:	=:	=:	=:	=:	=:	=:	=:	=:	=:	=:	=:	=:	=:	=:	=:	=:	=:	=:	=:	=:	=:	=:	=:	=:	=:	=:
*M3/4	*	*	*M3/4	*	*M3/4	*	*M3/4	*	*M3/4	*M3/4	*	*M3/4	*	*M3/4	*	*M3/4	*	*M3/4	*	*M3/4	*	*M3/4	*	*M3/4	*	*M3/4	*	*M3/4	*	*M3/4	*	*M3/4	*
4FFn	2.rAAA	.	2.r	.	2.r	.	4r	.	4FF#N	2.r	.	2.r	.	4RRe/	.	4F#N	.	2.r	.	2.r	.	4e--X 4g-X	.	4b--X	.	2.r	.	4d	.	4f#X 4a	.	2.r	.
4FFFn	.	.	.	.	.	.	4r	.	4FFF	.	.	.	.	4r	.	4FF	.	.	.	.	.	4ccnZ 4ee-	.	4gg-X	.	.	.	4b	.	4dd#X 4ff#X	.	.	.
!	!	!	!	!	!	!	!LO:TX:a:t=arco	!	!	!	!	!	!	!	!	!	!	!	!	!	!	!	!	!	!	!	!	!	!	!	!	!	!
4BBB	.	.	.	.	.	.	4cc#X 4ee 4ff#X	.	4BBB	.	.	.	.	4r	.	4BB	.	.	.	.	.	4g-X 4b--X	.	4dd-X	.	.	.	4f#X	.	4a 4cc#X	.	.	.
=8	=8	=8	=8	=8	=8	=8	=8	=8	=8	=8	=8	=8	=8	=8	=8	=8	=8	=8	=8	=8	=8	=8	=8	=8	=8	=8	=8	=8	=8	=8	=8	=8	=8
*M2/2	*M2/2	*M2/2	*M2/2	*M2/2	*M2/2	*M2/2	*M2/2	*M2/2	*M2/2	*M2/2	*M2/2	*M2/2	*	*M2/2	*M2/2	*M2/2	*M2/2	*M2/2	*M2/2	*M2/2	*M2/2	*M2/2	*M2/2	*M2/2	*M2/2	*M2/2	*M2/2	*M2/2	*M2/2	*M2/2	*M2/2	*M2/2	*M2/2
4FF#/	1rAAA	.	4r	.	1r	.	4cc#X 4dd# 4ff#X	.	4FF#	4r	.	4r	.	1r	.	4F#	.	1r	.	1r	.	1r	.	1r	.	1r	.	1r	.	1r	.	1r	.
4FFFnZ	.	.	8A 8c# 8eL	.	.	.	4r	.	4FFFnZ	8A 8c# 8eL	.	4Re/	mf	.	.	4FFnZ	.	.	.	.	.	.	.	.	.	.	.	.	.	.	.	.	.
.	.	.	8A 8c# 8eJ	.	.	.	.	.	.	8A 8c# 8eJ	.	.	.	.	.	.	.	.	.	.	.	.	.	.	.	.	.	.	.	.	.	.	.
4..BBB	.	.	8A 8c# 8eL	.	.	.	8.r	.	4..BBB	8A 8c# 8eL	.	4Re/	.	.	.	4..BB	.	.	.	.	.	.	.	.	.	.	.	.	.	.	.	.	.
.	.	.	8A 8c# 8eJ	.	.	.	.	.	.	8A 8c# 8eJ	.	.	.	.	.	.	.	.	.	.	.	.	.	.	.	.	.	.	.	.	.	.	.
.	.	.	.	.	.	.	16cc# 16ee 16ff#	.	.	.	.	.	.	.	.	.	.	.	.	.	.	.	.	.	.	.	.	.	.	.	.	.	.
.	.	.	8A 8c# 8eL	.	.	.	4cc# 4ee 4ff#	.	.	8A 8c# 8eL	.	4Re/	.	.	.	.	.	.	.	.	.	.	.	.	.	.	.	.	.	.	.	.	.
.	.	.	8A 8c# 8eJ	.	.	.	.	.	.	8A 8c# 8eJ	.	.	.	.	.	.	.	.	.	.	.	.	.	.	.	.	.	.	.	.	.	.	.
16FF#/	.	.	.	.	.	.	.	.	16FF#	.	.	.	.	.	.	16F#	.	.	.	.	.	.	.	.	.	.	.	.	.	.	.	.	.
=:	=:	=:	=:	=:	=:	=:	=:	=:	=:	=:	=:	=:	=:	=:	=:	=:	=:	=:	=:	=:	=:	=:	=:	=:	=:	=:	=:	=:	=:	=:	=:	=:	=:
*M3/4	*	*	*M3/4	*	*M3/4	*	*M3/4	*	*M3/4	*M3/4	*	*M3/4	*	*M3/4	*	*M3/4	*	*M3/4	*	*M3/4	*	*M3/4	*	*M3/4	*	*M3/4	*	*M3/4	*	*M3/4	*	*M3/4	*
4FFF	2.rAAA	.	2.r	.	2.r	.	4ee 4cc# 4b	.	4FFF	2.r	.	4r	.	2.r	.	4FF	.	2.r	.	2.r	.	4r	.	4r	.	2.r	.	4r	.	4r	.	4r	.
.	.	.	.	.	.	.	.	.	.	.	.	8qRe/	.	.	.	.	.	.	.	.	.	.	.	.	.	.	.	.	.	.	.	.	.
4BBB	.	.	.	.	.	.	4ee 4ccc# 4bb	.	4BBB	.	.	4Re/	.	.	.	4BB	.	.	.	.	.	4r	.	4r	.	.	.	4r	.	4r	.	4r	.
!	!	!	!	!	!	!	!	!	!	!	!	!	!	!	!	!	!	!	!	!	!	!	!	!	!	!	!	!	!	!	!	!LO:TX:a:rj:i:t=non leagto, secco	!
4FF#N	.	.	.	.	.	.	4r	.	4FF#N	.	.	4Re/	.	.	.	4F#N	.	.	.	.	.	4g 4bn/	f	4dd	f	.	.	4g	f	4b 4dd	f	4g 4b 4dd/	f
*	*	*	*	*	*	*	*	*	*X8ba	*	*	*	*	*	*	*	*	*	*	*	*	*	*	*	*	*	*	*	*	*	*	*	*
=	=	=	=	=	=	=	=	=	=	=	=	=	=	=	=	=	=	=	=	=	=	=	=	=	=	=	=	=	=	=	=	=	=
*-	*-	*-	*-	*-	*-	*-	*-	*-	*-	*-	*-	*-	*-	*-	*-	*-	*-	*-	*-	*-	*-	*-	*-	*-	*-	*-	*-	*-	*-	*-	*-	*-	*-
!!!system-decoration: [(s1[(s2,s3,s4)][(s5,s6)])][(s7,s8)][(s9)][(s10,s11)][({(s12,s13)})][(s14,s15,s16,s17)]
!!!RDF**kern: Z = editorial accidental, parenthesis
!!!RDF**kern: N = editorial accidental, bracket
!!!EED: Gabriella Vici
!!!EEV: 2021/11/30
!!!EED2: Jason Lee
!!!EEV2: 2022/04/16
!!!EED3: Bryan Bell
!!!EEV3: 2023/06/13
!!!Suter_Work_ID: Cop-7
!!!Suter_Example_Number: 705
!!!Suter_Example_ID: Cop-7/57/[45]1-[46]2
!!!Premiere_Location: Boston,United States
!!!Other_Tsigs: none
!!!Full_Unit_Duration: 19:45
!!!First_Publication_Year: 1957
!!!First_Public_Performance_Year: 1932
!!!Example_Total_Measures: 8
!!!Example_Timestamp_Duration: 16
!!!Example_Start_Tsig_Type: unequal duple
!!!Example_Start_Tsig_Mean_Beat_Rate: 208
!!!Example_Start_Tsig_Beat_Rate: 208
!!!Example_Start_Tsig_Beat: half+quarter
!!!Example_Start_Tsig: 2/2'3/4
!!!Example_Start_Timestamp: 16:17
!!!Example_Start_Tempo_Expression: Più mosso (molto ritmico)
!!!Example_Start_Notated_Beat_Rate: 208
!!!Example_Start_Notated_Beat: quarter
!!!Example_Start_Measure: 456
!!!Example_Metadata_Validated: Y
!!!Example_End_Timestamp: 16:33
!!!Example_End_Measure: 463
!!!Example_Dataset: T
!!!Editorial_Comments: The notated measures are written as 2/2+3/4 in a single measure with a notated time signature of 2/2 and 3/4 seperated by a space; the apostrophe is used in the data to separate them for practical purposes.
!!!Death_Place: North Tarrytown,United States
!!!Death_Date: 2-Dec-1990
!!!Changing_Tsig: no
!!!Birth_Place: Brooklyn,United States
!!!Birth_Date: 14-Nov-1900
!!!Audio_Example_Quarter_Note_Tempo:
!!!Audio_Example_Duration:
